packages/icons/svg/Universe_Carpentry_24px.svg

<svg xmlns="http://www.w3.org/2000/svg" viewBox="0 0 24 24"><path d="M20.75 13H19v-2.75A1.25 1.25 0 0017.75 9H16V6.25A1.25 1.25 0 0014.75 5h-5.5A1.25 1.25 0 008 6.25V9H6.25A1.25 1.25 0 005 10.25V13H3.25A1.25 1.25 0 002 14.25v3.5A1.25 1.25 0 003.25 19h17.5A1.25 1.25 0 0022 17.75v-3.5A1.25 1.25 0 0020.75 13zM17 11v2h-4v-2h4zm-7-4h4v2h-4zm-3 4h4v2H7zm1 6H4v-2h4zm6 0h-4v-2h4zm6 0h-4v-2h4z"/></svg>

<svg xmlns="http://www.w3.org/2000/svg" viewBox="0 0 24 24"><defs></defs><g id="Calque_5" ><path  d="M20.75,13H19V10.25A1.25,1.25,0,0,0,17.75,9H16V6.25A1.25,1.25,0,0,0,14.75,5H9.25A1.25,1.25,0,0,0,8,6.25V9H6.25A1.25,1.25,0,0,0,5,10.25V13H3.25A1.25,1.25,0,0,0,2,14.25v3.5A1.25,1.25,0,0,0,3.25,19h17.5A1.25,1.25,0,0,0,22,17.75v-3.5A1.25,1.25,0,0,0,20.75,13ZM17,11v2H13V11h4ZM10,7h4V9H10ZM7,11h4v2H7Zm1,6H4V15H8Zm6,0H10V15h4Zm6,0H16V15h4Z"/></g></svg>
